logos/chrome.svg

<svg xmlns="http://www.w3.org/2000/svg" viewBox="0 0 256 256">
 <defs>
  <linearGradient id="blueFade" x2="0%" y2="100%">
   <stop stop-color="#81b4e0" offset="0"/>
   <stop stop-color="#0c5a94" offset="1"/>
  </linearGradient>
  <linearGradient id="redFade" y2="107" gradientUnits="userSpaceOnUse" x2="128" y1="16" x1="128">
   <stop stop-color="#f06b59" offset="0"/>
   <stop stop-color="#df2227" offset="1"/>
  </linearGradient>
  <linearGradient id="greenFade" y2="149" gradientUnits="userSpaceOnUse" x2="118" y1="225" x1="72">
   <stop stop-color="#388b41" offset="0"/>
   <stop stop-color="#4cb749" offset="1"/>
  </linearGradient>
  <linearGradient id="yellowFade" y2="102" gradientUnits="userSpaceOnUse" x2="138" y1="220" x1="187">
   <stop stop-color="#e4b022" offset="0"/>
   <stop stop-color="#fcd209" offset=".3"/>
  </linearGradient>
  <linearGradient id="redShadow" y2="60" gradientUnits="userSpaceOnUse" x2="80" y1="140" x1="80">
   <stop stop-opacity=".15" offset="0"/>
   <stop stop-opacity=".06" offset=".3"/>
   <stop stop-opacity=".03" offset="1"/>
  </linearGradient>
  <linearGradient id="greenShadow" y2="217" gradientUnits="userSpaceOnUse" x2="109" y1="161" x1="164">
   <stop stop-opacity=".15" offset="0"/>
   <stop stop-opacity=".06" offset=".3"/>
   <stop stop-opacity=".03" offset="1"/>
  </linearGradient>
  <linearGradient id="yellowShadow" y2="100" gradientUnits="userSpaceOnUse" x2="147" y1="179" x1="139">
   <stop stop-opacity=".15" offset="0"/>
   <stop stop-opacity=".06" offset=".3"/>
   <stop stop-opacity=".03" offset="1"/>
  </linearGradient>
 </defs>
 <circle cy="128" cx="128" r="110" fill="#fff"/>
 <path fill-opacity=".1" d="m198 148a70 70 0 0 0 -140 0h20a50 50 0 0 1 100 0"/>
 <circle fill-opacity=".1" cy="142" cx="133" r="38"/>
 <circle cy="128" cx="128" r="41" fill="url(#blueFade)"/>
 <path d="m228 78a112 112 0 0 0 -193 -13l45 78a50 50 0 0 1 47 -65" fill="url(#redFade)"/>
 <path d="m35 65a112 112 0 0 0 84 174l47-80a50 50 0 0 1 -86 -16" fill="url(#greenFade)"/>
 <path d="m119 239a112 112 0 0 0 109 -161h-101a50 50 0 0 1 39 81" fill="url(#yellowFade)"/>
 <path d="m35 65l45 78a50 50 0 0 1 2 -34l-45-47" fill="url(#redShadow)"/>
 <path d="m119 239l47-80a50 50 0 0 1 -29 17l-20 63" fill="url(#greenShadow)"/>
 <path d="m228 78h-101a50 50 0 0 1 39 19l64-16" fill="url(#yellowShadow)"/>
</svg>

<svg xmlns="http://www.w3.org/2000/svg" viewBox="0 0 256 256">
  <defs>
    <linearGradient
       id="blueFade"
       x1="0%"
       y1="0%"
       x2="0%"
       y2="100%">
      <stop
         offset="0%"
         stop-color="#81b4e0"
         id="stop7"/>
      <stop
         offset="100%"
         stop-color="#0c5a94"
         id="stop9"/>
    </linearGradient>
    <linearGradient
       id="redFade"
       gradientUnits="userSpaceOnUse"
       x1="128"
       y1="16"
       x2="128"
       y2="107">
      <stop
         offset="0%"
         stop-color="#f06b59"
         id="stop12"/>
      <stop
         offset="100%"
         stop-color="#df2227"
         id="stop14"/>
    </linearGradient>
    <linearGradient
       id="greenFade"
       gradientUnits="userSpaceOnUse"
       x1="72"
       y1="225"
       x2="118"
       y2="149">
      <stop
         offset="0%"
         stop-color="#388b41"
         id="stop17"/>
      <stop
         offset="100%"
         stop-color="#4cb749"
         id="stop19"/>
    </linearGradient>
    <linearGradient
       id="yellowFade"
       gradientUnits="userSpaceOnUse"
       x1="187"
       y1="220"
       x2="138"
       y2="102">
      <stop
         offset="0%"
         stop-color="#e4b022"
         id="stop22"/>
      <stop
         offset="30%"
         stop-color="#fcd209"
         id="stop24"/>
    </linearGradient>
    <linearGradient
       id="redShadow"
       gradientUnits="userSpaceOnUse"
       x1="80"
       y1="140"
       x2="80"
       y2="60">
      <stop
         offset="0%"
         stop-color="black"
         stop-opacity=".15"
         id="stop27"/>
      <stop
         offset="30%"
         stop-color="black"
         stop-opacity=".06"
         id="stop29"/>
      <stop
         offset="100%"
         stop-color="black"
         stop-opacity=".03"
         id="stop31"/>
    </linearGradient>
    <linearGradient
       id="greenShadow"
       gradientUnits="userSpaceOnUse"
       x1="164"
       y1="161"
       x2="109"
       y2="217">
      <stop
         offset="0%"
         stop-color="black"
         stop-opacity=".15"
         id="stop34"/>
      <stop
         offset="30%"
         stop-color="black"
         stop-opacity=".06"
         id="stop36"/>
      <stop
         offset="100%"
         stop-color="black"
         stop-opacity=".03"
         id="stop38"/>
    </linearGradient>
    <linearGradient
       id="yellowShadow"
       gradientUnits="userSpaceOnUse"
       x1="139"
       y1="179"
       x2="147"
       y2="100">
      <stop
         offset="0%"
         stop-color="black"
         stop-opacity=".15"
         id="stop41"/>
      <stop
         offset="30%"
         stop-color="black"
         stop-opacity=".06"
         id="stop43"/>
      <stop
         offset="100%"
         stop-color="black"
         stop-opacity=".03"
         id="stop45"/>
    </linearGradient>
  </defs>
  <circle
     cx="128"
     cy="128"
     r="110"
     fill="white"
     id="circle47"/>
  <path
     fill="black"
     fill-opacity=".1"
     d="M 198 148 A 70 70 0 0 0 58 148 L 78 148 A 50 50 0 0 1 178 148"
     id="path49"/>
  <circle
     fill="black"
     fill-opacity=".1"
     cx="133"
     cy="142"
     r="38"
     id="circle51"/>
  <circle
     cx="50%"
     cy="50%"
     r="41"
     fill="url(#blueFade)"
     id="circle53"/>
  <path
     fill="url(#redFade)"
     d="M 228 78 A 112 112 0 0 0 35 65 L 80 143 A 50 50 0 0 1 127 78"
     id="path55"/>
  <path
     fill="url(#greenFade)"
     d="M 35 65 A 112 112 0 0 0 119 239 L 166 159 A 50 50 0 0 1 80 143"
     id="path57"/>
  <path
     fill="url(#yellowFade)"
     d="M 119 239 A 112 112 0 0 0 228 78 L 127 78 A 50 50 0 0 1 166 159"
     id="path59"/>
  <path
     fill="url(#redShadow)"
     d="M 35 65 L 80 143 A 50 50 0 0 1 82 109 L 37 62"
     id="path61"/>
  <path
     fill="url(#greenShadow)"
     d="M 119 239 L 166 159 A 50 50 0 0 1 137 176 L 117 239"
     id="path63"/>
  <path
     fill="url(#yellowShadow)"
     d="M 228 78 L 127 78 A 50 50 0 0 1 166 97 L 230 81"
     id="path65"/>
</svg>
